assets/Litter in bin sign/Flat/litter_in_bin_sign_flat.svg

<svg width="32" height="32" viewBox="0 0 32 32" fill="none" xmlns="http://www.w3.org/2000/svg">
<path d="M2 6C2 3.79086 3.79086 2 6 2H26C28.2091 2 30 3.79086 30 6V26C30 28.2091 28.2091 30 26 30H6C3.79086 30 2 28.2091 2 26V6Z" fill="#00A6ED"/>
<path d="M19.4307 10C20.8114 10 21.9307 8.88071 21.9307 7.5C21.9307 6.11929 20.8114 5 19.4307 5C18.05 5 16.9307 6.11929 16.9307 7.5C16.9307 8.88071 18.05 10 19.4307 10Z" fill="white"/>
<path d="M22.7619 11.2445H16.7982C15.8851 11.2445 15.0688 11.8126 14.7513 12.6683L13.7719 15.307H12C11.4613 15.307 10.9982 15.7208 10.9732 16.2589C10.9463 16.8333 11.4038 17.307 11.9719 17.307H13.9188C14.6638 17.307 15.3376 16.8376 15.5963 16.1389L16.5907 13.4508C16.6201 13.372 16.6901 13.312 16.7738 13.307C16.8932 13.2995 16.9926 13.3939 16.9926 13.512V26.2783C16.9926 26.817 17.4063 27.2801 17.9444 27.3051C18.5188 27.332 18.9926 26.8745 18.9926 26.3064V19.3441C18.9926 19.0778 19.1938 18.8454 19.4594 18.8279C19.7415 18.8279 19.9926 19.0397 19.9926 19.3266V26.2783C19.9926 26.817 20.4063 27.2801 20.9444 27.3051C21.5188 27.332 21.9926 26.8745 21.9926 26.3064L22.0113 13.8051C22.0113 13.5301 22.2344 13.3064 22.5101 13.3064C22.7857 13.3064 23.0088 13.5295 23.0088 13.8051L22.9901 18.6564C22.9901 19.2245 23.4638 19.682 24.0382 19.6551C24.5763 19.6301 24.9901 19.1664 24.9901 18.6283V13.472C24.9894 12.242 23.9919 11.2445 22.7619 11.2445Z" fill="white"/>
<path d="M10.0881 17.9856L9.12248 18.9513C9.01435 19.0594 9.01435 19.2356 9.12248 19.3438L10.5412 20.7625C10.6494 20.8706 10.8256 20.8706 10.9337 20.7625L11.8994 19.7969C12.0075 19.6888 12.0075 19.5125 11.8994 19.4044L10.4806 17.9856C10.3725 17.8775 10.1969 17.8775 10.0881 17.9856Z" fill="white"/>
<path d="M13.0106 19.5V26H8.01062V19.5C8.01062 19.2238 7.78687 19 7.51062 19C7.23437 19 7.01062 19.2238 7.01062 19.5V26.25C7.01062 26.6644 7.34625 27 7.76062 27H13.2606C13.675 27 14.0106 26.6644 14.0106 26.25V19.5C14.0106 19.2238 13.7869 19 13.5106 19C13.2344 19 13.0106 19.2238 13.0106 19.5Z" fill="white"/>
</svg>

<svg xmlns="http://www.w3.org/2000/svg" width="32" height="32" fill="none"><path fill="#00A6ED" d="M2 6a4 4 0 0 1 4-4h20a4 4 0 0 1 4 4v20a4 4 0 0 1-4 4H6a4 4 0 0 1-4-4V6Z"/><path fill="#fff" d="M19.43 10a2.5 2.5 0 1 0 0-5 2.5 2.5 0 0 0 0 5ZM22.762 11.245h-5.964c-.913 0-1.73.568-2.047 1.423l-.98 2.639H12c-.539 0-1.002.414-1.027.952a1 1 0 0 0 .999 1.048h1.947c.745 0 1.419-.47 1.677-1.168l.995-2.688c.03-.079.1-.139.183-.144a.205.205 0 0 1 .219.205v12.766c0 .539.413 1.002.951 1.027a1 1 0 0 0 1.049-.999v-6.962c0-.266.2-.499.466-.516.282 0 .534.212.534.499v6.951c0 .539.413 1.002.951 1.027a1 1 0 0 0 1.049-.999l.018-12.5a.499.499 0 0 1 .998 0l-.019 4.85a1 1 0 0 0 1.048 1c.538-.026.952-.49.952-1.028v-5.156c0-1.23-.998-2.227-2.228-2.227ZM10.088 17.986l-.966.965a.278.278 0 0 0 0 .393l1.42 1.418a.278.278 0 0 0 .392 0l.965-.965a.278.278 0 0 0 0-.393l-1.418-1.418a.278.278 0 0 0-.393 0Z"/><path fill="#fff" d="M13.01 19.5V26h-5v-6.5a.5.5 0 1 0-1 0v6.75c0 .414.336.75.75.75h5.5a.75.75 0 0 0 .75-.75V19.5a.5.5 0 1 0-1 0Z"/></svg>
